assets/icons/qvision/assistant.svg

<svg xmlns="http://www.w3.org/2000/svg" height="24" viewBox="0 0 24 24" width="24"><path d="M0 0h24v24H0z" fill="none"/><path d="M19 2H5c-1.1 0-2 .9-2 2v14c0 1.1.9 2 2 2h4l3 3 3-3h4c1.1 0 2-.9 2-2V4c0-1.1-.9-2-2-2zm-5.12 10.88L12 17l-1.88-4.12L6 11l4.12-1.88L12 5l1.88 4.12L18 11l-4.12 1.88z"/></svg>

<svg width="24" height="24" viewBox="0 0 24 24" fill="none" xmlns="http://www.w3.org/2000/svg">
<g clip-path="url(#clip0_147_3194)">
<path d="M19 2H5C3.9 2 3 2.9 3 4V18C3 19.1 3.9 20 5 20H9L12 23L15 20H19C20.1 20 21 19.1 21 18V4C21 2.9 20.1 2 19 2ZM13.88 12.88L12 17L10.12 12.88L6 11L10.12 9.12L12 5L13.88 9.12L18 11L13.88 12.88Z" fill="#323232"/>
</g>
<defs>
<clipPath id="clip0_147_3194">
<rect width="24" height="24" fill="white"/>
</clipPath>
</defs>
</svg>
